X:219
T: DIE HUSSITEN ZOGEN VOR NAUMBURG
N: B0707
O: Europa, Mitteleuropa, Deutschland, Halle a.d. Saale
R: Baenkel -, Scherz - Lied
M: 2/4
L: 1/16
K: G
 | D2G2G2G2 | G2G2B2G2
d2A2A2G2 | F2E2F2D2
e3cc2c2 | c2c2e4
d3BB2B2 | B2B2d4
A3Bc2F2 | A2G2z4
e3cc2c2 | c2c2e4
d3BB2B2 | B2B2d4
A3Bc2F2 | A2G2z4

